!!!COM: Palestrina, Giovanni Perluigi da
!!!OPR: Missa Sine nomine (Mantuan)
!!!OMD: Sanctus
!!!OTL: Pleni
**kern	**kern	**kern
*Itenor	*Icalto	*Icant
!Tenor	!Altus	!Cantus
*clefGv2	*clefG2	*clefG2
*k[]	*k[]	*k[]
*G:mix	*G:mix	*G:mix
*M4/2	*M4/2	*M4/2
=42	=42	=42
0r	0r	1g
.	.	2e
.	.	2e
=43	=43	=43
0r	0r	1a
.	.	2.g
.	.	4f
=44	=44	=44
0r	1g	4e
.	.	4d
.	.	1e
.	2e	.
.	2e	2c
=45	=45	=45
0r	1a	1f
.	2.g	2.e
.	4f	4d
=46	=46	=46
1g	4e	4c
.	4d	4B
.	1e	2.c
2e	.	.
.	.	4B
2e	2c	4A
.	.	4G
=47	=47	=47
1a	1f	1F
2.g	2.e	1c
4f	4d	.
=48	=48	=48
4e	4c	2r
4d	4B	.
1e	2.c	2g
.	.	2e
.	4B	.
2c	4A	2e
.	4G	.
=49	=49	=49
1f	1F	1a
2.e	1c	2.g
4d	.	4f
=50	=50	=50
4c	2r	4e
4B	.	4d
2.c	2g	1e
.	2e	.
4B	.	.
4A	2e	2c
4G	.	.
=51	=51	=51
1F	1a	1f
[1c	2.g	2.e
.	4f	4d
=52	=52	=52
1c]	4e	4c
.	4d	4B
.	2.e	2.c
1A	.	.
.	4d	4d
.	[2c	4e
.	.	4c
=53	=53	=53
1G	2c]	1d
.	2B	.
2r	2c	1c
2g	2e	.
=54	=54	=54
2e	2c	0r
2e	2c	.
1a	1f	.
=55	=55	=55
1g	0e	2r
.	.	2c
2r	.	2A
[2a	.	2A
=56	=56	=56
4a]	2r	1d
4g	.	.
1f	1a	.
.	.	1c
2e	2g	.
=57	=57	=57
2d	2f	0r
2c	2e	.
2f	2d	.
2e	2c	.
=58	=58	=58
2.d	2.f	2r
.	.	1a
4c	4e	.
1B	[1d	.
.	.	2g
=59	=59	=59
1A	2d]	2f
.	2c	2e
1r	2f	2d
.	2e	2c
=60	=60	=60
2r	1d	1.f
1a	.	.
.	1c	.
2g	.	2e
=61	=61	=61
2f	2r	2d
2e	2A	2c
2d	2B-	2.f
2c	2A	.
.	.	4e
=62	=62	=62
2.f	1F	2d
.	.	1c
4e	.	.
1d	1G	.
.	.	2B
=63	=63	=63
0c	1c	1c
.	2r	2r
.	[2c	[2e
=64	=64	=64
0r	2c]	2e]
.	2B	2d
.	2c	2e
.	2d	2f
=65	=65	=65
2r	2.e	1g
1e	.	.
.	4d	.
.	2c	1g
2d	2B	.
=66	=66	=66
2e	1A	2r
2f	.	1c
2.g	1G	.
.	.	2B
4f	.	.
=67	=67	=67
2e	0r	2c
2d	.	2d
2c	.	2.e
2B	.	.
.	.	4d
=68	=68	=68
2A	2r	2c
2G	1g	2B
2r	.	1A
[2c	2f	.
=69	=69	=69
2c]	2.g	2G
2B	.	1g
.	4f	.
2c	2e	.
2d	2d	2f
=70	=70	=70
2.e	2c	2.g
.	2G	.
4d	.	4f
2c	2A	2e
2B	2B	[2d
=71	=71	=71
1A	1c	4d]
.	.	4c
.	.	1c
1G	1d	.
.	.	2B
=72	=72	=72
0c	2c	2c
.	1g	1e
.	2e	2c
=73	=73	=73
2r	2f	2d
2c	2g	2e
2A	[1a	1f
2F	.	.
=74	=74	=74
1c	2a]	1e
.	2g	.
1F	1f	1a
=75	=75	=75
[0c	[0e	[0g
=76	=76	=76
0c]	0e]	0g]
*-	*-	*-
!!!CDT: 1525/^1526/-1594/2/2
!!!OCY: Italia
!!!AGN: Mass (Free)
!!!AST: renaissance, vocal
!!!ASW: Motet (Maffoni)
!!!PWK: Masses, Book Mantuan II
!!!RNB: Cadence finals: C
!!!YOR: Le Opere Complete, v. 19, p. 168
!!!YOO: Rome, Italy: Fratelli Scalera
!!!END: 1992//
!!!EED: John Miller
!!!YEC: Copyright 2000, John Miller
!!!YEN: United States of America
!!!YEM: Rights to all derivative electronic formats reserved.
!!!YEM: Refer to licensing agreement for further details.
!!!YEM: This file must be accompanied by the licensing agreement.
!!!YEM: A copy of the licensing agreement may be found at http://www.music-cog.ohio-state.edu/HumdrumDatabases/Palestrina/license.txt
!!!EMD: converted to Humdrum by Bret Aarden
